xplan-workspaces/src/main/workspace/styles/xplansyn/symbols/gruenflbadpl_sym.svg

<?xml version="1.0" encoding="UTF-8" standalone="no"?>
<!--
  #%L
  xplan-workspaces - Modul zur Gruppierung aller Workspaces
  %%
  Copyright (C) 2008 - 2023 Freie und Hansestadt Hamburg, developed by lat/lon gesellschaft für raumbezogene Informationssysteme mbH
  %%
  This program is free software: you can redistribute it and/or modify
  it under the terms of the GNU Affero General Public License as published by
  the Free Software Foundation, either version 3 of the License, or
  (at your option) any later version.
  
  This program is distributed in the hope that it will be useful,
  but WITHOUT ANY WARRANTY; without even the implied warranty of
  MERCHANTABILITY or FITNESS FOR A PARTICULAR PURPOSE.  See the
  GNU General Public License for more details.
  
  You should have received a copy of the GNU Affero General Public License
  along with this program.  If not, see <http://www.gnu.org/licenses/>.
  #L%
  -->

<!-- Created with Inkscape (http://www.inkscape.org/) -->

<svg
   version="1.0"
   width="100%"
   height="100%"
   viewBox="-5 -3.5 100 100"
   id="svg2"
   xmlns="http://www.w3.org/2000/svg"
   xmlns:svg="http://www.w3.org/2000/svg">
  <defs
     id="defs4">
    <style
       type="text/css"
       id="style6" />
  </defs>
  <rect
     style="fill:#ffffff;stroke-width:11.1557"
     id="rect33795"
     width="99.044205"
     height="67.622459"
     x="-4.5221028"
     y="12.629033" />
  <g
     id="use23"
     transform="matrix(10.460899,0,0,10.460899,45,46.5)">
    <path
       id="rect17"
       style="fill:none;stroke:#000000;stroke-width:0.5;stroke-linecap:round"
       d="m -4.5,-3 h 9 v 6 h -9 z" />
    <path
       d="m -4,-1.75 c 0.6666667,-0.5 1.3333333,-0.5 2,0 0.6666667,0.5 1.33333333,0.5 2,0 0.66666667,-0.5 1.3333333,-0.5 2,0 0.6666667,0.5 1.3333333,0.5 2,0"
       id="path20"
       style="fill:none;stroke:#000000;stroke-width:0.25;stroke-linecap:round" />
    <path
       d="m -4,-1 c 0.6666667,-0.5 1.3333333,-0.5 2,0 0.6666667,0.5 1.33333333,0.5 2,0 0.66666667,-0.5 1.3333333,-0.5 2,0 0.6666667,0.5 1.3333333,0.5 2,0"
       id="path22"
       style="fill:none;stroke:#000000;stroke-width:0.25;stroke-linecap:round" />
    <path
       d="m -4,-0.25 c 0.6666667,-0.5 1.3333333,-0.5 2,0 0.6666667,0.5 1.33333333,0.5 2,0 0.66666667,-0.5 1.3333333,-0.5 2,0 0.6666667,0.5 1.3333333,0.5 2,0"
       id="path24"
       style="fill:none;stroke:#000000;stroke-width:0.25;stroke-linecap:round" />
    <path
       d="M -4,0.5 C -3.3333333,0 -2.6666667,0 -2,0.5 -1.3333333,1 -0.66666667,1 0,0.5 0.66666667,0 1.3333333,0 2,0.5 2.6666667,1 3.3333333,1 4,0.5"
       id="path26"
       style="fill:none;stroke:#000000;stroke-width:0.25;stroke-linecap:round" />
    <path
       d="m -4,1.25 c 0.6666667,-0.5 1.3333333,-0.5 2,0 0.6666667,0.5 1.33333333,0.5 2,0 0.66666667,-0.5 1.3333333,-0.5 2,0 0.6666667,0.5 1.3333333,0.5 2,0"
       id="path28"
       style="fill:none;stroke:#000000;stroke-width:0.25;stroke-linecap:round" />
    <path
       d="m -4,2 c 0.6666667,-0.5 1.3333333,-0.5 2,0 0.6666667,0.5 1.33333333,0.5 2,0 0.66666667,-0.5 1.3333333,-0.5 2,0 0.6666667,0.5 1.3333333,0.5 2,0"
       id="path30"
       style="fill:none;stroke:#000000;stroke-width:0.25;stroke-linecap:round" />
  </g>
</svg>

<?xml version="1.0" encoding="UTF-8" standalone="no"?>
<!-- Created with Inkscape (http://www.inkscape.org/) -->

<svg
   version="1.0"
   width="100%"
   height="100%"
   viewBox="-5 -3.5 100 100"
   id="svg2"
   xmlns:xlink="http://www.w3.org/1999/xlink"
   xmlns="http://www.w3.org/2000/svg"
   xmlns:svg="http://www.w3.org/2000/svg">
  <defs
     id="defs4">
    <style
       type="text/css"
       id="style6" />
    <symbol
       id="SymbolBadeplatzTrans"
       style="overflow:visible">
      <rect
         width="9"
         height="6"
         x="-4.5"
         y="-3"
         id="rect9"
         style="fill:none;stroke:#000000;stroke-width:0.5;stroke-linecap:round" />
      <path
         d="M -4,-1.75 C -3.3333333,-2.25 -2.6666667,-2.25 -2,-1.75 C -1.3333333,-1.25 -0.66666667,-1.25 0,-1.75 C 0.66666667,-2.25 1.3333333,-2.25 2,-1.75 C 2.6666667,-1.25 3.3333333,-1.25 4,-1.75"
         id="path11"
         style="fill:none;stroke:#000000;stroke-width:0.25;stroke-linecap:round" />
      <path
         d="M -4,-1 C -3.3333333,-1.5 -2.6666667,-1.5 -2,-1 C -1.3333333,-0.5 -0.66666667,-0.5 0,-1 C 0.66666667,-1.5 1.3333333,-1.5 2,-1 C 2.6666667,-0.5 3.3333333,-0.5 4,-1"
         id="path13"
         style="fill:none;stroke:#000000;stroke-width:0.25;stroke-linecap:round" />
      <path
         d="M -4,-0.25 C -3.3333333,-0.75 -2.6666667,-0.75 -2,-0.25 C -1.3333333,0.25 -0.66666667,0.25 0,-0.25 C 0.66666667,-0.75 1.3333333,-0.75 2,-0.25 C 2.6666667,0.25 3.3333333,0.25 4,-0.25"
         id="path15"
         style="fill:none;stroke:#000000;stroke-width:0.25;stroke-linecap:round" />
      <path
         d="M -4,0.5 C -3.3333333,0 -2.6666667,0 -2,0.5 C -1.3333333,1 -0.66666667,1 0,0.5 C 0.66666667,0 1.3333333,0 2,0.5 C 2.6666667,1 3.3333333,1 4,0.5"
         id="path17"
         style="fill:none;stroke:#000000;stroke-width:0.25;stroke-linecap:round" />
      <path
         d="M -4,1.25 C -3.3333333,0.75 -2.6666667,0.75 -2,1.25 C -1.3333333,1.75 -0.66666667,1.75 0,1.25 C 0.66666667,0.75 1.3333333,0.75 2,1.25 C 2.6666667,1.75 3.3333333,1.75 4,1.25"
         id="path19"
         style="fill:none;stroke:#000000;stroke-width:0.25;stroke-linecap:round" />
      <path
         d="M -4,2 C -3.3333333,1.5 -2.6666667,1.5 -2,2 C -1.3333333,2.5 -0.66666667,2.5 0,2 C 0.66666667,1.5 1.3333333,1.5 2,2 C 2.6666667,2.5 3.3333333,2.5 4,2"
         id="path21"
         style="fill:none;stroke:#000000;stroke-width:0.25;stroke-linecap:round" />
    </symbol>
  </defs>
  <rect
     style="fill:#ffffff;stroke-width:11.1557"
     id="rect33795"
     width="99.044205"
     height="67.622459"
     x="-4.5221028"
     y="12.629033" />
  <use
     transform="matrix(10.460899,0,0,10.460899,45,46.5)"
     id="use23"
     x="0"
     y="0"
     width="10"
     height="7"
     xlink:href="#SymbolBadeplatzTrans" />
</svg>
